X:258
L:1/8
Q:1/8=150
M:2/2
K:D
 FG | A2 Bc dcdB | AdFD EA,B,C | DCDE FEFG | dBAF E2 FG | A^GAc dcdB | AdFD EA,B,C | ABdB AFEG | 
 F2 D2 D2 :| de | fa af bfag | faec dcBA | FABc dcdb | afed e2 fg | afbf agfe | faec dcBA | 
 FAdA BGEG | F2 D2 D2 :|

